dist/assets/svg/form/phone.svg

<svg xmlns="http://www.w3.org/2000/svg" width="14" height="23" fill="none" viewBox="0 0 14 23"><path fill="#030303" d="M12.3738 0H1.62824C1.19674 0.00106214 0.783231 0.167559 0.478113 0.463097C0.172995 0.758634 0.00109658 1.15916 0 1.57711V21.4229C0.00109658 21.8408 0.172995 22.2414 0.478113 22.5369C0.783231 22.8324 1.19674 22.9989 1.62824 23H12.3738C12.8051 22.9989 13.2184 22.8324 13.5232 22.5368C13.828 22.2412 13.9995 21.8406 14 21.4229V1.57711C13.9995 1.15935 13.828 0.758814 13.5232 0.463219C13.2184 0.167625 12.8051 0.00106404 12.3738 0ZM3.94496 21.1845H2.19003C2.0347 21.1845 1.88573 21.1247 1.7759 21.0183C1.66606 20.9119 1.60436 20.7677 1.60436 20.6172C1.60436 20.4668 1.66606 20.3225 1.7759 20.2161C1.88573 20.1097 2.0347 20.0499 2.19003 20.0499H3.94496C4.10029 20.0499 4.24926 20.1097 4.35909 20.2161C4.46893 20.3225 4.53063 20.4668 4.53063 20.6172C4.53063 20.7677 4.46893 20.9119 4.35909 21.0183C4.24926 21.1247 4.10029 21.1845 3.94496 21.1845ZM3.94496 19.023H2.19003C2.03497 19.023 1.88627 18.9634 1.77663 18.8572C1.66699 18.751 1.6054 18.6069 1.6054 18.4567C1.6054 18.3066 1.66699 18.1625 1.77663 18.0563C1.88627 17.9501 2.03497 17.8904 2.19003 17.8904H3.94496C4.10002 17.8904 4.24872 17.9501 4.35836 18.0563C4.468 18.1625 4.5296 18.3066 4.5296 18.4567C4.5296 18.6069 4.468 18.751 4.35836 18.8572C4.24872 18.9634 4.10002 19.023 3.94496 19.023ZM3.94496 16.8635H2.19003C2.0347 16.8635 1.88573 16.8037 1.7759 16.6974C1.66606 16.591 1.60436 16.4467 1.60436 16.2962C1.60436 16.1458 1.66606 16.0015 1.7759 15.8951C1.88573 15.7887 2.0347 15.729 2.19003 15.729H3.94496C4.10029 15.729 4.24926 15.7887 4.35909 15.8951C4.46893 16.0015 4.53063 16.1458 4.53063 16.2962C4.53063 16.4467 4.46893 16.591 4.35909 16.6974C4.24926 16.8037 4.10029 16.8635 3.94496 16.8635ZM3.94496 14.702H2.19003C2.0347 14.702 1.88573 14.6423 1.7759 14.5359C1.66606 14.4295 1.60436 14.2852 1.60436 14.1347C1.60436 13.9843 1.66606 13.84 1.7759 13.7336C1.88573 13.6272 2.0347 13.5674 2.19003 13.5674H3.94496C4.10029 13.5674 4.24926 13.6272 4.35909 13.7336C4.46893 13.84 4.53063 13.9843 4.53063 14.1347C4.53063 14.2852 4.46893 14.4295 4.35909 14.5359C4.24926 14.6423 4.10029 14.702 3.94496 14.702ZM7.87747 21.1855H6.12461C5.96928 21.1855 5.82031 21.1257 5.71048 21.0193C5.60065 20.913 5.53894 20.7687 5.53894 20.6182C5.53894 20.4678 5.60065 20.3235 5.71048 20.2171C5.82031 20.1107 5.96928 20.0509 6.12461 20.0509H7.87747C8.03279 20.0509 8.18176 20.1107 8.2916 20.2171C8.40143 20.3235 8.46313 20.4678 8.46313 20.6182C8.46313 20.7687 8.40143 20.913 8.2916 21.0193C8.18176 21.1257 8.03279 21.1855 7.87747 21.1855ZM7.87747 19.024H6.12461C6.04784 19.024 5.97181 19.0093 5.90088 18.9809C5.82995 18.9524 5.7655 18.9107 5.71121 18.8581C5.65692 18.8056 5.61386 18.7431 5.58448 18.6744C5.5551 18.6057 5.53998 18.5321 5.53998 18.4577C5.53998 18.3834 5.5551 18.3097 5.58448 18.241C5.61386 18.1723 5.65692 18.1099 5.71121 18.0573C5.7655 18.0047 5.82995 17.963 5.90088 17.9346C5.97181 17.9061 6.04784 17.8915 6.12461 17.8915H7.87747C7.95424 17.8915 8.03026 17.9061 8.10119 17.9346C8.17212 17.963 8.23658 18.0047 8.29086 18.0573C8.34515 18.1099 8.38822 18.1723 8.4176 18.241C8.44698 18.3097 8.4621 18.3834 8.4621 18.4577C8.4621 18.5321 8.44698 18.6057 8.4176 18.6744C8.38822 18.7431 8.34515 18.8056 8.29086 18.8581C8.23658 18.9107 8.17212 18.9524 8.10119 18.9809C8.03026 19.0093 7.95424 19.024 7.87747 19.024ZM7.87747 16.8645H6.12461C5.96928 16.8645 5.82031 16.8048 5.71048 16.6984C5.60065 16.592 5.53894 16.4477 5.53894 16.2972C5.53894 16.1468 5.60065 16.0025 5.71048 15.8961C5.82031 15.7897 5.96928 15.73 6.12461 15.73H7.87747C8.03279 15.73 8.18176 15.7897 8.2916 15.8961C8.40143 16.0025 8.46313 16.1468 8.46313 16.2972C8.46313 16.4477 8.40143 16.592 8.2916 16.6984C8.18176 16.8048 8.03279 16.8645 7.87747 16.8645ZM7.87747 14.703H6.12461C6.0477 14.703 5.97154 14.6884 5.90048 14.6598C5.82943 14.6313 5.76486 14.5895 5.71048 14.5369C5.6561 14.4842 5.61295 14.4217 5.58352 14.3528C5.55409 14.284 5.53894 14.2102 5.53894 14.1357C5.53894 14.0612 5.55409 13.9875 5.58352 13.9187C5.61295 13.8498 5.6561 13.7873 5.71048 13.7346C5.76486 13.6819 5.82943 13.6401 5.90048 13.6116C5.97154 13.5831 6.0477 13.5685 6.12461 13.5685H7.87747C7.95438 13.5685 8.03053 13.5831 8.10159 13.6116C8.17265 13.6401 8.23721 13.6819 8.2916 13.7346C8.34598 13.7873 8.38912 13.8498 8.41856 13.9187C8.44799 13.9875 8.46313 14.0612 8.46313 14.1357C8.46313 14.2102 8.44799 14.284 8.41856 14.3528C8.38912 14.4217 8.34598 14.4842 8.2916 14.5369C8.23721 14.5895 8.17265 14.6313 8.10159 14.6598C8.03053 14.6884 7.95438 14.703 7.87747 14.703ZM11.81 21.1865H10.055C9.89971 21.1865 9.75074 21.1267 9.64091 21.0204C9.53107 20.914 9.46937 20.7697 9.46937 20.6192C9.46937 20.4688 9.53107 20.3245 9.64091 20.2181C9.75074 20.1117 9.89971 20.052 10.055 20.052H11.81C11.9653 20.052 12.1143 20.1117 12.2241 20.2181C12.3339 20.3245 12.3956 20.4688 12.3956 20.6192C12.3956 20.7697 12.3339 20.914 12.2241 21.0204C12.1143 21.1267 11.9653 21.1865 11.81 21.1865ZM11.81 19.025H10.055C9.89998 19.025 9.75128 18.9653 9.64164 18.8591C9.532 18.753 9.47041 18.6089 9.47041 18.4587C9.47041 18.3085 9.532 18.1645 9.64164 18.0583C9.75128 17.9521 9.89998 17.8925 10.055 17.8925H11.81C11.965 17.8925 12.1137 17.9521 12.2234 18.0583C12.333 18.1645 12.3946 18.3085 12.3946 18.4587C12.3946 18.6089 12.333 18.753 12.2234 18.8591C12.1137 18.9653 11.965 19.025 11.81 19.025ZM11.81 16.8655H10.055C9.97813 16.8655 9.90197 16.8509 9.83091 16.8223C9.75985 16.7938 9.69529 16.7521 9.64091 16.6994C9.58652 16.6467 9.54338 16.5842 9.51395 16.5153C9.48452 16.4465 9.46937 16.3727 9.46937 16.2982C9.46937 16.2237 9.48452 16.15 9.51395 16.0812C9.54338 16.0123 9.58652 15.9498 9.64091 15.8971C9.69529 15.8444 9.75985 15.8026 9.83091 15.7741C9.90197 15.7456 9.97813 15.731 10.055 15.731H11.81C11.8869 15.731 11.963 15.7456 12.0341 15.7741C12.1052 15.8026 12.1697 15.8444 12.2241 15.8971C12.2785 15.9498 12.3216 16.0123 12.3511 16.0812C12.3805 16.15 12.3956 16.2237 12.3956 16.2982C12.3956 16.3727 12.3805 16.4465 12.3511 16.5153C12.3216 16.5842 12.2785 16.6467 12.2241 16.6994C12.1697 16.7521 12.1052 16.7938 12.0341 16.8223C11.963 16.8509 11.8869 16.8655 11.81 16.8655ZM11.81 14.704H10.055C9.89971 14.704 9.75074 14.6442 9.64091 14.5379C9.53107 14.4315 9.46937 14.2872 9.46937 14.1367C9.46937 13.9863 9.53107 13.842 9.64091 13.7356C9.75074 13.6292 9.89971 13.5695 10.055 13.5695H11.81C11.9653 13.5695 12.1143 13.6292 12.2241 13.7356C12.3339 13.842 12.3956 13.9863 12.3956 14.1367C12.3956 14.2872 12.3339 14.4315 12.2241 14.5379C12.1143 14.6442 11.9653 14.704 11.81 14.704ZM12.433 12.2619H1.56905V1.85171H12.4299L12.433 12.2619Z"/></svg>

<svg xmlns="http://www.w3.org/2000/svg" width="14" height="23" fill="none" viewBox="0 0 14 23"><path fill="#030303" d="M12.374 0H1.628a1.66 1.66 0 0 0-1.15.463A1.56 1.56 0 0 0 0 1.577v19.846c.001.418.173.818.478 1.114a1.66 1.66 0 0 0 1.15.463h10.746a1.66 1.66 0 0 0 1.15-.463c.304-.296.476-.696.476-1.114V1.577c0-.418-.172-.818-.477-1.114A1.66 1.66 0 0 0 12.373 0M3.945 21.185H2.19a.6.6 0 0 1-.414-.167.56.56 0 0 1 0-.802.6.6 0 0 1 .414-.166h1.755c.155 0 .304.06.414.166a.56.56 0 0 1 0 .802.6.6 0 0 1-.414.166m0-2.162H2.19a.6.6 0 0 1-.413-.166.56.56 0 0 1 0-.8.6.6 0 0 1 .413-.167h1.755c.155 0 .304.06.413.166a.56.56 0 0 1 0 .801.6.6 0 0 1-.413.166m0-2.16H2.19a.6.6 0 0 1-.414-.166.56.56 0 0 1 0-.802.6.6 0 0 1 .414-.166h1.755c.155 0 .304.06.414.166a.56.56 0 0 1 0 .802.6.6 0 0 1-.414.166m0-2.161H2.19a.6.6 0 0 1-.414-.166.56.56 0 0 1 0-.802.6.6 0 0 1 .414-.167h1.755c.155 0 .304.06.414.167a.56.56 0 0 1 0 .802.6.6 0 0 1-.414.166m3.932 6.484H6.125a.6.6 0 0 1-.415-.167.56.56 0 0 1 0-.802.6.6 0 0 1 .415-.166h1.752c.156 0 .305.06.415.166a.56.56 0 0 1 0 .802.6.6 0 0 1-.415.167m0-2.162H6.125a.6.6 0 0 1-.414-.166.56.56 0 0 1-.171-.4.55.55 0 0 1 .171-.4.6.6 0 0 1 .414-.166h1.752a.6.6 0 0 1 .414.165.57.57 0 0 1 .171.4.55.55 0 0 1-.171.401.6.6 0 0 1-.414.166m0-2.16H6.125a.6.6 0 0 1-.415-.166.56.56 0 0 1 0-.802.6.6 0 0 1 .415-.166h1.752c.156 0 .305.06.415.166a.56.56 0 0 1 0 .802.6.6 0 0 1-.415.166m0-2.161H6.125a.6.6 0 0 1-.415-.166.57.57 0 0 1-.171-.401.55.55 0 0 1 .171-.401.6.6 0 0 1 .415-.166h1.752a.6.6 0 0 1 .415.166.57.57 0 0 1 .171.4.55.55 0 0 1-.171.402.6.6 0 0 1-.415.166m3.933 6.483h-1.755a.6.6 0 0 1-.414-.166.56.56 0 0 1 0-.802.6.6 0 0 1 .414-.166h1.755c.155 0 .304.06.414.166a.56.56 0 0 1 0 .802.6.6 0 0 1-.414.166m0-2.161h-1.755a.6.6 0 0 1-.413-.166.557.557 0 0 1 0-.8.6.6 0 0 1 .413-.167h1.755c.155 0 .304.06.413.166a.557.557 0 0 1 0 .801.6.6 0 0 1-.413.166m0-2.16h-1.755a.6.6 0 0 1-.414-.166.57.57 0 0 1-.172-.4.55.55 0 0 1 .172-.402.6.6 0 0 1 .414-.166h1.755a.6.6 0 0 1 .414.166.57.57 0 0 1 .172.401.55.55 0 0 1-.172.401.6.6 0 0 1-.414.166m0-2.161h-1.755a.6.6 0 0 1-.414-.166.56.56 0 0 1 0-.802.6.6 0 0 1 .414-.167h1.755c.155 0 .304.06.414.167a.56.56 0 0 1 0 .802.6.6 0 0 1-.414.166m.623-2.442H1.569V1.852h10.86z"/></svg>
